X:3
T:Nancy in a Shirttail
C: Sarah Gowan 2007 
R:reel
M:4/4
K:Dmix
A,2|"D7"DCDE FEFG|AGAB cBcB|"D7"D2DEFED2|"C7"C2>D2C2 A,2|
"D7"DCDE FEFG|AGAB cBcB|"C7"cBcB cBA2|"C7"FEC2""D2:|
A2|:"D7"d4"C7"c4|"F"A2 AG=FGA2|"D7"D2 DEF2G2|"F"A2>B2c2A2| 
"D7"d4"C7"c4|"F"A2 AG=FGA2|"D7"D2 DE "C7"FEC2|"D"D2>E2D4:|
